brandFactory_export/2.Regular/Buscar en la nube_2Regular.svg

<?xml version="1.0" encoding="UTF-8"?>
<svg width="24px" height="24px" viewBox="0 0 24 24" version="1.1" xmlns="http://www.w3.org/2000/svg" xmlns:xlink="http://www.w3.org/1999/xlink">
    <title>2.Regular/Buscar en la nube_2Regular</title>
    <g id="Symbols" stroke="none" stroke-width="1" fill="none" fill-rule="evenodd">
        <g id="2.Regular/Buscar-en-la-nube_2Regular" fill="#5CB615" fill-rule="nonzero">
            <path d="M11.7277311,18.9781513 C9.45546218,18.9781513 7.60672269,17.112605 7.60672269,14.8235294 C7.60672269,12.5310924 9.45546218,10.6689076 11.7277311,10.6689076 C14,10.6689076 15.8453827,12.5344538 15.8453827,14.8235294 C15.8487395,17.1159664 14,18.9781513 11.7277311,18.9781513 Z M4.72268908,15.6436975 C3.2302521,15.4890756 1.44537815,14.712605 1.44537815,11.892437 C1.44537815,9.97647059 2.25882353,8.7697479 3.86554622,8.31260504 C4.17478992,8.22184874 4.38991597,7.93613445 4.38991597,7.61008403 L4.38319328,7.47563025 C4.38319328,1.88907563 9.22352941,1.45882353 10.7058824,1.45882353 C11.5462185,1.45882353 15.7915966,1.65042017 16.7966387,5.42521008 C16.8806723,5.73781513 17.1563025,5.95630252 17.4756303,5.96638655 C18.8907563,6.00672269 22.1781513,6.55462185 22.1781513,10.7697479 C22.1781513,15.2537815 18.4470588,15.6033613 17.3008403,15.6033613 L17.2336134,15.6033613 C17.2672269,15.3478992 17.2907563,15.0890756 17.2907563,14.8268908 C17.2907563,11.7277311 14.8,9.21344538 11.7277311,9.21344538 C8.65546218,9.21344538 6.16134454,11.7277311 6.16134454,14.8268908 C6.16134454,15.102521 6.18823529,15.3714286 6.22521008,15.6403361 L4.72268908,15.6436975 Z M17.3042017,17.0588235 C20.2184874,17.0588235 23.6235294,15.4117647 23.6235294,10.7697479 C23.6235294,6.54453782 20.8268908,4.8 18.0369748,4.54117647 C16.5445378,0.225210084 11.6941176,0 10.7058824,0 C9.43193277,0 3.17647059,0.346218487 2.94789916,7.08907563 C1.66386555,7.60336134 0,8.8605042 0,11.892437 C0,14.8537815 1.71092437,16.8 4.6487395,17.0991597 L6.63865546,17.0957983 C7.50252101,19.0655462 9.45546218,20.4403361 11.7277311,20.4403361 C12.9579832,20.4403361 14.0907563,20.0336134 15.0117647,19.3512605 C15.0184874,19.3579832 15.0218487,19.3714286 15.0285714,19.3781513 L19.0285714,23.4151261 C19.1697479,23.5563025 19.3546218,23.6268908 19.5394958,23.6268908 C19.7243697,23.6268908 19.9092437,23.5563025 20.0504202,23.4151261 C20.3327731,23.1294118 20.3327731,22.6689076 20.0504202,22.3831933 L16.0537815,18.3529412 C16.3663866,17.9630252 16.6285714,17.5294118 16.8268908,17.0655462 L17.3042017,17.0588235 L17.3042017,17.0588235 Z" id="Buscar-en-la-nube_2Regular"></path>
        </g>
    </g>
</svg>

<svg width="24" height="24" viewBox="0 0 24 24" xmlns="http://www.w3.org/2000/svg"><path d="M11.728 18.978c-2.273 0-4.121-1.865-4.121-4.154 0-2.293 1.848-4.155 4.12-4.155 2.273 0 4.118 1.865 4.118 4.155.004 2.292-1.845 4.154-4.117 4.154zm-7.005-3.334c-1.493-.155-3.278-.931-3.278-3.752 0-1.916.814-3.122 2.42-3.58a.732.732 0 00.525-.702l-.007-.134c0-5.587 4.84-6.017 6.323-6.017.84 0 5.086.191 6.09 3.966.085.313.36.531.68.541 1.415.04 4.702.589 4.702 4.804 0 4.484-3.73 4.833-4.877 4.833h-.067c.033-.255.057-.514.057-.776 0-3.1-2.491-5.614-5.563-5.614-3.073 0-5.567 2.515-5.567 5.614 0 .276.027.544.064.813l-1.502.004zm12.581 1.415c2.914 0 6.32-1.647 6.32-6.29 0-4.224-2.797-5.969-5.587-6.228C16.545.225 11.694 0 10.706 0c-1.274 0-7.53.346-7.758 7.09C1.664 7.602 0 8.86 0 11.891 0 14.854 1.71 16.8 4.649 17.1l1.99-.003c.864 1.97 2.816 3.344 5.089 3.344 1.23 0 2.363-.406 3.284-1.089.006.007.01.02.017.027l4 4.037a.72.72 0 001.021 0 .734.734 0 000-1.032l-3.996-4.03a5.55 5.55 0 00.773-1.287l.477-.007z" fill="#5CB615" fill-rule="nonzero"/></svg>
